src/lib/packages/icons/src/assets/line/usb-drive.svg

<svg xmlns="http://www.w3.org/2000/svg" width="24" height="24" fill="none"><path fill="currentColor" d="M16.75 7.27V4c0-.965-.785-1.75-1.75-1.75H9c-.965 0-1.75.785-1.75 1.75v3.27c-1.254.097-2 .91-2 2.23V18c0 2.418 1.332 3.75 3.75 3.75h6c2.418 0 3.75-1.332 3.75-3.75V9.5c0-1.321-.746-2.133-2-2.23ZM9 3.75h6a.25.25 0 0 1 .25.25v3.25h-6.5V4A.25.25 0 0 1 9 3.75ZM17.25 18c0 1.577-.673 2.25-2.25 2.25H9c-1.577 0-2.25-.673-2.25-2.25V9.5c0-.589.161-.75.75-.75h9c.589 0 .75.161.75.75V18Zm-3-1a.75.75 0 0 1-.75.75h-3a.75.75 0 0 1 0-1.5h3a.75.75 0 0 1 .75.75ZM9.75 5.5a.75.75 0 1 1 1.5 0 .75.75 0 0 1-1.5 0Zm3 0a.75.75 0 1 1 1.5 0 .75.75 0 0 1-1.5 0Z"/></svg>

<svg width="24" height="24" viewBox="0 0 24 24" fill="none" xmlns="http://www.w3.org/2000/svg">
<path d="M16.75 7.27002V4C16.75 3.035 15.965 2.25 15 2.25H9C8.035 2.25 7.25 3.035 7.25 4V7.27002C5.996 7.36702 5.25 8.18 5.25 9.5V18C5.25 20.418 6.582 21.75 9 21.75H15C17.418 21.75 18.75 20.418 18.75 18V9.5C18.75 8.179 18.004 7.36702 16.75 7.27002ZM9 3.75H15C15.138 3.75 15.25 3.862 15.25 4V7.25H8.75V4C8.75 3.862 8.862 3.75 9 3.75ZM17.25 18C17.25 19.577 16.577 20.25 15 20.25H9C7.423 20.25 6.75 19.577 6.75 18V9.5C6.75 8.911 6.911 8.75 7.5 8.75H16.5C17.089 8.75 17.25 8.911 17.25 9.5V18ZM14.25 17C14.25 17.414 13.914 17.75 13.5 17.75H10.5C10.086 17.75 9.75 17.414 9.75 17C9.75 16.586 10.086 16.25 10.5 16.25H13.5C13.914 16.25 14.25 16.586 14.25 17ZM9.75 5.5C9.75 5.086 10.086 4.75 10.5 4.75C10.914 4.75 11.25 5.086 11.25 5.5C11.25 5.914 10.914 6.25 10.5 6.25C10.086 6.25 9.75 5.914 9.75 5.5ZM12.75 5.5C12.75 5.086 13.086 4.75 13.5 4.75C13.914 4.75 14.25 5.086 14.25 5.5C14.25 5.914 13.914 6.25 13.5 6.25C13.086 6.25 12.75 5.914 12.75 5.5Z" fill="currentColor"/>
</svg>
